X: 1
T:Hanter dro
C:Pennec, Tablatures 1
M:3/4
L:1/8
K:C
AB/c/ AG A2|AB/c/ ed cB|\
AB/c/ AG A2|AB/c/ ed B2:|
|:AB/c/ Ae e2|dc/B/ AB/c/ AG|\
AB/c/ ed cB|AB/c/ dB A2:|
